dist/svg/u1F308.svg

<?xml version="1.0" encoding="UTF-8"?><svg id="Layer_1" xmlns="http://www.w3.org/2000/svg" viewBox="0 0 40 40"><rect y="0" width="40" height="40" style="fill:none;"/><g><path d="M19.49239,36.49237h-4c0-11.5791,9.42041-21,21-21v4c-9.37402,0-17,7.62598-17,17Z" style="fill:#23b169;"/><path d="M15.49239,36.49237h-4c0-13.78516,11.21484-25,25-25v4c-11.57959,0-21,9.4209-21,21Z" style="fill:#ffcd00;"/><path d="M11.49239,36.49237H7.49239c0-15.99023,13.00928-29,29-29v4c-13.78516,0-25,11.21484-25,25Z" style="fill:#ff9c00;"/><path d="M7.49239,36.49237h-2.97719c-.56111,0-1.02432-.46351-1.00714-1.02436C4.04075,18.08394,18.08399,4.04071,35.46808,3.50809c.56082-.01718,1.02431,.446,1.02431,1.00709v2.97719c-16.01626,0-29,12.98374-29,29Z" style="fill:#ef4452;"/><path d="M23.49239,36.49237h-4c0-9.37402,7.62598-17,17-17v4c-7.16846,0-13,5.83203-13,13Z" style="fill:#466cfb;"/></g></svg>

<svg id="Layer_1" data-name="Layer 1" xmlns="http://www.w3.org/2000/svg" viewBox="0 0 40 40"><defs><style>.cls-1{fill:none;}.cls-2{fill:#23b169;}.cls-3{fill:#ffcd00;}.cls-4{fill:#ff9c00;}.cls-5{fill:#ef4452;}.cls-6{fill:#466cfb;}</style></defs><rect class="cls-1" width="40" height="40"/><path class="cls-2" d="M19.492,36.492h-4a21.024,21.024,0,0,1,21-21v4A17.019,17.019,0,0,0,19.492,36.492Z"/><path class="cls-3" d="M15.492,36.492h-4a25.028,25.028,0,0,1,25-25v4A21.024,21.024,0,0,0,15.492,36.492Z"/><path class="cls-4" d="M11.492,36.492h-4a29.034,29.034,0,0,1,29-29v4A25.028,25.028,0,0,0,11.492,36.492Z"/><path class="cls-5" d="M7.492,36.492H4.515a1,1,0,0,1-1.007-1.024,33.043,33.043,0,0,1,31.96-31.96,1,1,0,0,1,1.024,1.007V7.492A29,29,0,0,0,7.492,36.492Z"/><path class="cls-6" d="M23.492,36.492h-4a17.019,17.019,0,0,1,17-17v4A13.015,13.015,0,0,0,23.492,36.492Z"/></svg>
